X:24
T: Zwei Wasser. (Schwimmersage)
N: A0024B
O: Europa, Mitteleuropa, Deutschland
N: Mel. bei Schmeltzel, Quodlibet X. 1544
R: Romanze, Ballade, Lied
M: 3/1
L: 1/2
K: G
G2 | G3A_B2 | A4G2 | A3_Bc2 | d4
d2 | c3_BA2 | _B2G4 | =F6 | z4
=F2 | G3A_B2 | c3_BA2 | G3A_B2 | A4
G2 | =F2D4 | G3=FFE | G4

@@@ Tune index: 24
